c5="<[f3 ds4 gs4 cs5 ] [as3 fs4 as4 b4 ds5 ] [b3 e4 gs4 b4 ds5 ] [ds3 fs4 b4 cs5 ]>"
c6="<[f3, ds4, gs4, cs5, ] [as3, fs4, as4, b4, ds5, ] [b3, e4, gs4, b4, ds5 ] [ds3, fs4, b4, cs5]>"

-- drums
d1 $ fast 2 $ whenmod 16 15 (const $ fast 0.75 $ palindrome $ degradeBy 0.3 $ scramble 12 $ s "gretsch" <| n "[20 23 22] [15 12 15] [20 12 15] [22 20 23]" # gain ((range 1.1 0.75 rand)) # room 0.4 # speed ("5")) $ s "gretsch" <| n "[<13 22> ,[~ 19]/2]" # speed 3 # room 0.4

-- less busy cello
d2 $ struct "[t ] [t? [~ t ~]] [t? ] [t? [~ t ~]]" $ n "0 [~ 4? ~ 5?] <3 1 2>? [~ 7? <13? 11>]" # s "cello-plucked" # note "<f c <d fs a> [b4 g?]> d e c" # room 0.3 # gain (range 1 1.2 rand)

-- more busy cello
d2 $ n "0 [~ 4  ? ~ 5?] <3 1 2>? [~ 7? <13? 11>]" # s "cello-plucked" # note "<f c <d fs a> [b4 g?] > d e c" # room 0.3 # gain (range 1 1.2 rand)

-- piano simple
d3 $ struct "t*<12>" $ note (arp "<updown>" (off 0.5 (+"-12") (off 0.25 (+"-7") "<[f] c <d fs a> [b4 g?] > d e c"))) # s "midi" # amp ((range 0.5 0.7 rand)*"1 [1 ~!7] <0 1? 0 1?> [[1 ~!7]? 1?]") # sustain 2 # midichan 1

-- piano busier build
d3 $ struct "t*<12>" $ note (arp "<updown>" (off 0.5 (+"-12") (off 0.25 (+"-5") "<[f] c <d fs a> [b4 g?] > d e c"))) # s "midi" # amp (slow 8 (range 0.5 0.9 saw)*"1  ") # sustain 2 # midichan 1

-- piano busier
d3 $ struct "t*<12>" $ note (arp "<updown>" (off 0.5 (+"-12") (off 0.25 (+"-5") "<[f] c <d fs a> [b4 g?] > d e c"))) # s "midi" # amp ((range 0.7 0.9 rand)*"1  ") # sustain 2 # midichan 1

-- piano notes
d4 $ slow 4 $ note ("<[c@2 d [e@6 d@2]] [[c [g@3 f]] [e@6 d@2]]>"+"[12]") # s "midi" # amp ((range 0.5 0.7 rand)*"1  ") # midichan 1

-- REPRO --

-- REPRO FILTER CUTOFF
-- every beat
d10 $ whenmod 4 3 (fast 2) $ ccn "73*128" # ccv ((segment 128 ((range 55 100 saw)))) # s "midi" # midichan 2
-- every beat more
d10 $ whenmod 4 3 (fast 2) $ ccn "73*128" # ccv ((segment 128 ((range 10 127 saw)))) # s "midi" # midichan 2
-- tri over 4
d10 $ slow 4 $ ccn "73*128" # ccv ((segment 128 ((range 64 100 tri)))) # s "midi" # midichan 2
-- build over 4
d10 $ slow 4 $ ccn "73*128" # ccv ((segment 128 ((range 64 127 saw)))) # s "midi" # midichan 2

-- repro basic
d5 $ slow 1 $ note ("<[c5,d5,f5,<c6 <g5 a5>>] [c5,d5,e5,g5] <[c5,e5,a5]> [b4,d5,[a5 <g5 b5>]]>"+"0") # s "midi" # midichan 2
-- repro some chromatic
d5 $ slow 1 $ note ("<[c5,d5,f5,<c6 <g5 a5>>] [c5,d5,e5,g5] <[c5,e5,a5]> [b4,d5,[a5 <g5 b5>]]>"+"[<0!7 [<[1 2][-1 -2 ][2 3]>]>]") # s "midi" # midichan 2
-- repro chromatic
d5 $ slow 1 $ note ("<[c5,d5,f5,<c6 <g5 a5>>] [c5,d5,e5,g5] <[c5,e5,a5]> [b4,d5,[a5 <g5 b5>]]>"+"[<[0 1] [2 3]>]") # s "midi" # midichan 2

-- synth run
d6 $ degradeBy 0.0 $ s "rash" <| n (108 + "{0 2 4 5 9 11 12 14 <16 19 23 24>}%[20]") # cutoff (slow 8 (tri*1500)) # room 0.4 # gain 0.9 # pan perlin

-- beat
d7 $ struct "[t ] [~ [~ t? ~]] [~ ] [~ [~ t? ~]]" $ s "808bd:1" # note "f6 c6 a5 f5" # krush 30 # room 0.5

p "bfAngle" $ ccv "<[64 127] [64 0]>" # ccn 3 # s "midi"
p "wingAngle" $ ccv (segment 128 (fast 2 (range 0 127 tri))) # ccn 4 # s "midi"
p "disolve" $ ccv (segment 128 (slow 1 (range 127 0 saw))) # ccn 5 # s "midi"
p "xloc" $ ccv (segment 128 (slow 2 (range 127 0 sine))) # ccn 6 # s "midi"

p "yloc" $ ccv (segment 128 (slow 4 (range 127 0 sine))) # ccn 7 # s "midi"

p "xloc" $ ccv (segment 128 (slow 1 (range 127 0 perlin))) # ccn 6 # s "midi"

p "yloc" $ ccv (segment 128 (slow 2 (range 127 0 perlin))) # ccn 7 # s "midi"

p "xloc" $ ccv (64) # ccn 6 # s "midi"

p "yloc" $ ccv (64) # ccn 7 # s "midi"

p "zloc" $ ccv (segment 128 (slow 4 (range 127 0 sine))) # ccn 8 # s "midi"

p "visuals" $ fast 1 $ ccv "1" # ccn 9 # s "midi"

do
  p "visuals" $ fast 1 $ ccv "<4 9> <1>" # ccn 9 # s "midi"
  p "disolve" $ ccv "<15>" # ccn 5 # s "midi"


p "visuals" $ fast 1 $ ccv  "6 <8 9>" # ccn 9 # s "midi"


p "flyig" $ fast 1 $ ccv "0 1" # ccn 10 # s "midi"

do
  hush
  p "flyig" $ fast 1 $ ccv "0" # ccn 10 # s "midi"
  p "visuals" $ fast 1 $ ccv  "0" # ccn 9 # s "midi"
  p "bfAngle" $ ccv "<[64 127] [64 0]>" # ccn 3 # s "midi"
  p "wingAngle" $ ccv (segment 128 (fast 2 (range 0 127 tri))) # ccn 4 # s "midi"
  d2 $ n "0 [~ 4  ? ~ 5?] <3 1 2>? [~ 7? <13? 11>]" # s "cello-plucked" # note "<f c <d fs a> [b4 g?] > d e c" # room 0.3 # gain (range 1 1.2 rand)
  d4 $ slow 4 $ note ("<[c@2 d [e@6 d@2]] [[c [g@3 f]] [e@6 d@2]]>"+"[12]") # s "midi" # amp ((range 0.5 0.7 rand)*"1") # midichan 1

-- COMP

-- less busy cello
do
  resetCycles
  d2 $ filterWhen (>=0) $ struct "[t ] [t? [~ t ~]] [t? ] [t? [~ t ~]]" $ n "0 [~ 4? ~ 5?] <3 1 2>? [~ 7? <13? 11>]" # s "cello-plucked" # note "<f c <d fs a> [b4 g?]> d e c" # room 0.3 # gain (range 1 1.2 rand)

-- drum no fill
d1 $ fast 2 $ s "gretsch" <| n "[<13 22> ,[~ 19]/2]" # speed 3 # room 0.4

do
  d10 $ whenmod 4 3 (fast 2) $ ccn "73*128" # ccv ((segment 128 ((range 10 127 saw)))) # s "midi" # midichan 2
  d5 $ slow 1 $ note ("<[c5,d5,f5,<c6 <g5 a5>>] [c5,d5,e5,g5] <[c5,e5,a5]> [b4,d5,[a5 <g5 b5>]]>"+"[<0!7 [<[1 2][-1 -2 ][2 3]>]>]") # s "midi" # midichan 2

-- piano notes
do
  d5 silence
  d4 $ slow 4 $ note ("<[c@2 d [e@6 d@2]] [[c [g@3 f]] [e@6 d@2]]>"+"[12]") # s "midi" # amp ((range 0.5 0.7 rand)*"1  ") # midichan 1

-- drum with fill
d1 $ fast 2 $ whenmod 16 15 (const $ fast 0.75 $ palindrome $ degradeBy 0.3 $ scramble 12 $ s "gretsch" <| n "[20 23 22] [15 12 15] [20 12 15] [22 20 23]" # gain ((range 1.1 0.75 rand)) # room 0.4 # speed ("5")) $ s "gretsch" <| n "[<13 22> ,[~ 19]/2]" # speed 3 # room 0.4

-- piano simple
clutchIn 4 5 $ struct "t*<12>" $ note (arp "<updown>" (off 0.5 (+"-12") (off 0.25 (+"-7") "<[f] c <d fs a> [b4 g?] > d e c"))) # s "midi" # amp ((range 0.5 0.7 rand)*"1 [1 ~!7] <0 1? 0 1?> [[1 ~!7]? 1?]") # midichan 1

-- interlude
do
  d1 silence
  -- more busy cello
  d2 $ n "0 [~ 4  ? ~ 5?] <3 1 2>? [~ 7? <13? 11>]" # s "cello-plucked" # note "<f c <d fs a> [b4 g?] > d e c" # room 0.3 # gain (range 1 1.2 rand)
  -- synth run
  d6 $ degradeBy 0.0 $ s "rash" <| n (108 + "{0 2 4 5 9 11 12 14 <16 19 23 24>}%[20]") # cutoff (slow 8 (tri*1500)) # room 0.4 # gain 1 # pan perlin
  -- piano notes
  clutch 4 $ slow 4 $ note ("<[c@2 d [e@6 d@2]] [[c [g@3 f]] [e@6 d@2]]>"+"[12]") # s "midi" # amp ((range 0.5 0.7 rand)*"1  ") # midichan 1
  -- tri over 4
  d11 $ ccn "75*128" # ccv 32 # s "midi" # midichan 2
  d10 $ slow 4 $ ccn "73*128" # ccv ((segment 128 ((range 64 100 tri)))) # s "midi" # midichan 2 --
  d5 $ slow 1 $ note ("<[c5,d5,f5,<c6 <g5 a5>>] [c5,d5,e5,g5] <[c5,e5,a5]> [b4,d5,[a5 <g5 b5>]]>"+"0") # s "midi" # midichan 2

-- build
do {
  hush;
  d11 $ ccn "75*128" # ccv 32 # s "midi" # midichan 2;
  d3 $ qtrigger 3 $ seqP [
  (0,6,struct "t*<12>" $ note (arp "<updown>" (off 0.5 (+"-12") (off 0.25 (+"-5") "<[f] c <d fs a> [b4 g?] > d e c"))) # s "midi" # amp (slow 8 (range 0.5 0.9 saw)*"1  ") # midichan 1)];
  d10 $ qtrigger 10 $ seqP [
  -- (0,6,slow 4 $ ccn "73*128" # ccv ((segment 128 ((range 64 100 tri)))) # s "midi" # midichan 2),
  (0,8,slow 8 $ ccn "73*128" # ccv ((segment 128 ((range 64 127 saw)))) # s "midi" # midichan 2)];
  -- repro chromatic
  d5 $ qtrigger 5 $ seqP [
  (0,6,slow 1 $ note ("<[c5,d5,f5,<c6 >] [c5,d5,e5,g5] <[c5,e5,a5]> [b4,d5,[a5 <b5>]]>"+"0") # s "midi" # midichan 2),
  (6,8,slow 1 $ note ("<[c5,d5,f5,<c6>] [c5,d5,e5,g5] <[c5,e5,a5]> [b4,d5,[a5 <b5>]]>"+"[<[0 1] [[2 3] [4 5]]>]") # s "midi" # midichan 2)];
  d1 $ qtrigger 1 $ seqP [ (6, 8, fast "<2 [2 3 3]>" $ s "gretsch" <| n (slow 1 "{0 1 2 3 4 5 6 7 8 9 10 11 12}%8") # gain (slow 3 (range 1.2 1.6 saw)) # room 0.4 # speed (slow 2 (range 3 5 saw)))]
}

-- d1 $ qtrigger 1 $ seqP [ (6, 8, fast "<2 [2 3 3]>" $ s "gretsch" <| n (slow 1 "{0 1 2 3 4 5 6 7 8 9 10 11 12}%8") # gain (slow 3 (range 1 1.5 saw)) # room 0.4 # speed (slow 2 (range 3 5 saw)))]

-- drop
do{
  hush;
  d1 $ qtrigger 1 $ seqP [ (0, 1, fast "1" $ palindrome $ s "gretsch" <| n (slow 0.5 "{0 1 2 3 4 5 6 7 8 9 10 11 12}%8") # gain (range 1.3 0.7 saw) # room 0.4 # speed 5)];
  d9 $ qtrigger 9 $ slow 4 $ s "percussion:32" # room 0.5 # gain 1.3;
  d7 $ qtrigger 7 $ s "808bd:1" <| note ("<[f6 ~ e6 [f6 [~ ~ ~]]] [~ f6 e6*3? [~ [~ ~ ~]]]>"+"<[<12>,-12]>") # krush 20 # room 0.9 # gain 1.2;
  -- filter
  d10 $ qtrigger 10 $ slow 2 $ ccn "73*128" # ccv ((segment 128 ((range 100 127  tri)))) # s "midi" # midichan 2;
  d11 $ qtrigger 11 $ slow 2 $ ccn "75*128" # ccv 40 # s "midi" # midichan 2;
  -- repro some chromatic
  -- d5 $ qtrigger 5 $ silence;
  d5 $ qtrigger 5 $ struct "t*<16>" $ note ("[25 13 1 -11]*6"+(c5)+"[0,-12]") # s "midi" # midichan 2;
  -- piano notes
  -- d4 $ slow 4 $ note ("<[c@2 d [e@6 d@2]] [[c [g@3 f]] [e@6 d@2]]>"+"[12,0,-12]") # s "midi" # amp ((range 0.6 0.8 rand)*"1  ") # midichan 1
  d2 $ qtrigger 2 $ n "0 [~ 4  ? ~ 5?] <3 1 2> [~ 7? <13 11>]" # s "cello-plucked" # note ("[25 13 1 -11]*6"+(c5)) # room 0.3 # gain (range 1 1.2 rand);
  d3 $ qtrigger 3 $ silence;
  d8 $ qtrigger 8 $ s "[<[~ percussion:11] [~ [percussion:12,percussion:11]]>]";
  -- d1 $ qtrigger 1 $ silence;
  d4 $ qtrigger 4 $ silence
}

d3 $ qtrigger 3 $ struct "t*<12>" $ note ("[25 13 1 -11]*6"+(c5)) # s "midi" # amp (slow 4 (range 0.6 0.8 rand)*"1 [1 ~!7] <0> [[1 ~!7]? 1?]") # midichan 1 # sustain 2

do
  d4 $ struct "t*<16>" $ note ((c6)+"1") # s "midi" # midichan 2
  d7 $ s "808bd:1" <| note ("<[f6 ~ e6 [f6 [~ ~ ~]]] [~ f6 e6*3? [f6 [~ ~ ~]]]>"+"<[24,12,-12]>") # krush 40 # room 0.9 # gain 1.2

d1 $ fast "<2 [2 3 3]>" $ s "gretsch" <| n (slow 1 "{0 1 2 3 4 5 6 7 8 9 10 11 12}%8") # gain (slow 2 (range 1.1 1.2 rand)) # room 0.4 # speed (slow 2 (range 3 5 saw))

d6 $ degradeBy 0.0 $ s "rash" <| n (108 + "{0 2 4 5 9 11 12 14 <16 19 23 24>}%[20]") # cutoff (slow 8 (tri*1500)) # room 0.4 # gain 1 # pan perlin

-- d9 $ s "808bd*4" # krush 40 # gain 1.15

-- do
--   -- d3 $ struct "t*<16>" $ note ((c6)+"1") # s "midi" # midichan 2
--   d9 $ someCyclesBy 0.1 (# gain 0) $ s "808bd*4" # krush 40 # gain 1.15
--   -- d5 silence

do
  d9 $ qtrigger 9 $ slow 4 $ s "percussion:32" # room 0.5 # gain 1.3;
  d7 silence
  d5 silence
  d1 $ fast 2 $ whenmod 4 2 (const $ fast 0.75 $ palindrome $ degradeBy 0.5 $ scramble 12 $ s "gretsch" <| n "[20 23 22] [15 12 15] [20 12 15] [22 20 23]" # gain ((range 1.1 0.75 rand)) # room 0.4 # speed ("5")) $ s "gretsch" <| n "[<13 22> ,[~ 19]/2]" # speed 3 # room 0.4 # gain 1.1
  d2 $ qtrigger 2$ n "0 [~ 4  ? ~ 5?] <3 1 2> [~ 7? <13 11>]" # s "cello-plucked" # note ("[25 13 1 -11]*6"+(c5)) # room 0.3 # gain (range 1 1.2 rand)
  d3 $ qtrigger 3 $ struct "t*<12>" $ note ("[25 13 1 -11]*6"+(c5)) # s "midi" # amp (slow 4 (range 0.6 0.8 rand)*"1 [1 ~!7] <0> [[1 ~!7]? 1?]") # midichan 1 # sustain 2
  -- d4 $ struct "t*<16>" $ note ((c6)+"1") # s "midi" # midichan 2
  d6 silence
  d8 silence
  -- d10 $ ccn "73*16" # ccv (range 0 90 rand) # s "midi" # midichan 2
  -- d5  $ note ("<[c6 b5 a5 ~] [c6 b5 g5 ~] [c6 b5 a5 b5] [c6 b5 d6 ~]>") # s "midi" # midichan 2
  d4 silence
  d10 $ ccn "73*16" # ccv (range 0 90 rand) # s "midi" # midichan 2
  d4 $ struct "t*<16>" $ note ((c6)+"1") # s "midi" # midichan 2
  d5  $ note ("<[c6 b5 a5 ~] [c6 b5 g5 ~] [c6 b5 a5 b5] [c6 b5 d6 ~]>") # s "midi" # midichan 2

-- do
--   d10 $ ccn "73*16" # ccv (range 0 90 rand) # s "midi" # midichan 2
--   d4 $ struct "t*<16>" $ note ((c6)+"1") # s "midi" # midichan 2
--   d5  $ note ("<[c6 b5 a5 ~] [c6 b5 g5 ~] [c6 b5 a5 b5] [c6 b5 d6 ~]>") # s "midi" # midichan 2

d9 silence
d3 silence
d1 silence
d4 silence
d5 silence

do
  hush
  d2 $ qtrigger 2 $ n "0 [~ 4  ? ~ 5?] <3 1 2>? [~ 7? <13? 11>]" # s "cello-plucked" # note "<f c <d fs a> [b4 g?] > d e c" # room 0.3 # gain (range 1 1.2 rand)
  d4 $ qtrigger 4 $ slow 4 $ note ("<[c@2 d [e@6 d@2]] [[c [g@3 f]] [e@6 d@2]]>"+"[12]") # s "midi" # amp ((range 0.5 0.7 rand)*"1") # midichan 1


d6 silence
